!!!COM: Beethoven
!!!OTL: Six Variations on an Original Theme
!!!Variation: Theme a
**function	**harm	**kern	**kern
*	*	*clefF4	*clefG2
*	*	*k[b-]	*k[b-]
*M2/4	*M2/4	*M2/4	*M2/4
*F:	*F:	*F:	*F:
8T	8I	8r	8cc
=1	=1	=1	=1
*	*	*^	*
4T	4I	(4A 4c	8FL	(4f 4cc
.	.	.	8FJ	.
8T	8IVc	8B-L 8d	8FL	8fL 8dd
8T	8I	8AJ) 8c	8FJ	8fJ) 8cc
*	*	*v	*v	*
=2	=2	=2	=2
4T	4V7	4F 4G 4B- 4c 4e	4g 4b- 4cc 4ee
4T	4I	8F' 8A' 8c' 8f'	8a' 8cc' 8ff'
.	.	8r	16r
.	.	.	16cc
=3	=3	=3	=3
*	*	*^	*^
8T	8I	(4A	8FL	8.ccL	4f
8T	8V7d/IV	.	8E-J	.	.
.	.	.	.	(16ccJk	.
8P	8IVb	16B-LL	8DL	16ddLL	8fL
.	.	16A)	.	16cc)	.
16P	16V7b	(16G	16EL	(16b-	16cL
16P	16I	16FJJ)	16FJJ	16aJJ)	16cJJ
=4	=4	=4	=4	=4	=4
4D	4Cc	(4F	16.CLL	(4a	4c
.	.	.	32BBk	.	.
.	.	.	16.C	.	.
.	.	.	32BBJJk	.	.
16D	16V	16E)	16C	16gLL)	16c
*	*	*v	*v	*	*
*	*	*	*v	*v

8.D	8.V	8.r	(16a'
.	.	.	16b-'
.	.	.	16b'JJ)
=5	=5	=5	=5
*	*	*	*^
4T	4I	8FF'L	(4cc	8r
.	.	(8FJ 8A 8c	.	8f
8T	8IVc	8FL 8B- 8d	8ddL	8fL
8T	8I	8FJ) 8A 8c	8ccJ)	8fJ
*	*	*	*v	*v
=6	=6	=6	=6
4T	4viioD7	4F 4G 4B- 4d- 4e	4g 4b- 4dd- 4ee
4T	4I	8F' 8A' 8c' 8f'	8a' 8cc' 8ff'
.	.	8r	16r
.	.	.	16ff
=7	=7	=7	=7
*	*	*	*^
4.D	4.Cc	4c	(8aLL	16.ff
.	.	.	.	32ccJJk)
.	.	.	4f	4a
.	.	4C	.	.
8D	8V7	.	(16.eLL	16.b-
.	.	.	32B-JJk	32g
*	*	*	*v	*v
=8	=8	=8	=8
4..T	4..I	16FF' 16F'	16A') 16f'
.	.	16r	16r
*	*	*	*clefF4
.	.	16FFF' 16FF'	16A' 16c'
.	.	16r	16r
.	.	16FFF' 16FF'	16F' 16A'
.	.	16r	16r
.	.	16r	16r
*	*	*clefF4	*clefG2
=9	=9	=9	=9
*	*	*^	*^
2T	2IV	(8.B-L	4F	(8.ddL	4f
.	.	16cJk	.	16eeJk	.
.	.	16dLL	4F	16ffLL	4f
.	.	16c#	.	16ee	.
.	.	16d	.	16ff	.
.	.	16B-JJ)	.	16ddJJ)	.
=10	=10	=10	=10	=10	=10
8T	8I	8AL	(8FL	(8ccL	8fL
8T	8V7c	8cJ	8GJ	8eeJ	8b-J
8T	8Ib	8cL	8AL	8ffL	8aL
8T	8vi7b	8cJ	8FJ)	8ddJ)	8aJ
=11	=11	=11	=11	=11	=11
8T	8Vb	8cL	(8EL	(16.ggLL	8gL
.	.	.	.	32eeJk)	.
8T	8vi/V	8cJ	8AJ	[8ccJ	(16eL
.	.	.	.	.	16f#JJ)
8D	8Cc/V	8eL	8GL	16.ccLL]	8gL
.	.	.	.	32cck	.
8D	8V7/V	16.BL	8GJ)	(16.dd	8fJ
.	.	32dJJk	.	32bJJk)	.
=12	=12	=12	=12	=12	=12
4.T	4.I/V	8C	8c	8ccL	8e
*	*	*v	*v	*	*
.	.	8r	(16.gL	8r
.	.	.	32eeJJk)	.
.	.	8r	([8eeL	8r
8T	8V7/V	8G 8B	24eeL]	8f
.	.	.	24dd)	.
.	.	.	24cc'JJ	.
=13	=13	=13	=13	=13
4.T	4.I/V	8C 8c	8ccL	8e
.	.	8r	(16.gL	8r
.	.	.	32eeJJk)	.
.	.	8r	([8eeL	8r
8T	8V7/V	8G 8B	24eeL]	8f
.	.	.	24dd)	.
.	.	.	24cc'JJ	.
=14	=14	=14	=14	=14
8T	8I/V	(8CL 8c	[8cc	(8eL
*	*	*	*v	*v
*	*	*	*^
4.D	4.V7	8B-J 8c	4cc]	8eJ 8g
.	.	8AL 8c	.	8fL 8a
.	.	8GJ) 8c	8cc	8eJ) 8b-
*	*	*	*v	*v
=15	=15	=15	=15
*	*	*^	*
4T	4I	(4A 4c	8FL	(4f 4a 4cc
.	.	.	8FJ	.
8T	8IVc	8B-L 8d	8FL	8fL 8b- 8dd
8T	8I	8AJ) 8c	8FJ	8fJ) 8a 8cc
*	*	*v	*v	*
=16	=16	=16	=16
4T	4V7	4F 4G 4B- 4c 4e	4g 4b- 4cc 4ee
4T	4I	8F' 8A' 8c' 8f'	8a' 8cc' 8ff'
.	.	8r	16r
.	.	.	16cc
=17	=17	=17	=17
*	*	*^	*^
8T	8I	(4A	8FL	8.ccL	4f
8T	8V7d/IV	.	8E-J	.	.
.	.	.	.	(16ccJk	.
8P	8IVb	16B-LL	8DL	16ddLL	8fL
.	.	16A)	.	16cc)	.
16P	16V7b	(16G	16EL	(16b-	16cL
16P	16I	16FJJ)	16FJJ	16aJJ)	16cJJ
=18	=18	=18	=18	=18	=18
4D	4Cc	(4F	16.CLL	(4a	4c
.	.	.	32BBk	.	.
.	.	.	16.C	.	.
.	.	.	32BBJJk	.	.
16D	16V	16E)	16C	16gLL)	16c
*	*	*v	*v	*	*
*	*	*	*v	*v
8.D	8.V	8.r	(16a'
.	.	.	16b-'
.	.	.	16b'JJ)
=19	=19	=19	=19
*	*	*	*^
4T	4I	8FF'L	(4cc	8r
.	.	(8FJ 8A 8c	.	8f
8T	8IVc	8FL 8B- 8d	8ddL	8fL
8T	8I	8FJ) 8A 8c	8ccJ)	8fJ
*	*	*	*v	*v
=20	=20	=20	=20
4T	4viioD7	4F 4G 4B- 4d- 4e	4g 4b- 4dd- 4ee
4T	4I	8F' 8A' 8c' 8f'	8a' 8cc' 8ff'
.	.	8r	16r
.	.	.	16ff
=21	=21	=21	=21
*	*	*	*^
4.D	4.Cc	4c	(8aLL	16.ff
.	.	.	.	32ccJJk)
.	.	.	4f	4a
.	.	4C	.	.
8D	8V7	.	(16.eLL	16.b-
.	.	.	32B-JJk	32g
*	*	*	*v	*v
=22	=22	=22	=22
4.T	4.I	16FF' 16F'	16A') 16f'
.	.	16r	16r
*	*	*	*clefF4
.	.	16FFF' 16FF'	16A' 16c'
.	.	16r	16r
.	.	16FFF' 16FF'	16F' 16A'
.	.	16r	16r
*-	*-	*-	*-
